_includes/icons/ios-approval.svg

<svg fill="#666" height="50" viewBox="0 0 50 50" width="50" xmlns="http://www.w3.org/2000/svg"><path d="m20.064453 2.5234375a1.0001 1.0001 0 0 0 -.664062.2636719l-3.552735 3.2558594-4.736328.7890624a1.0001 1.0001 0 0 0 -.763672.6152344l-1.7753904 4.4375004-3.9453125 2.763672a1.0001 1.0001 0 0 0 -.4257812.878906l.296875 4.835937-2.3671875 4.140625a1.0001 1.0001 0 0 0 0 .992188l2.3671875 4.140625-.296875 4.835937a1.0001 1.0001 0 0 0 .4257812.878906l3.9453125 2.763672 1.7753904 4.4375a1.0001 1.0001 0 0 0 .763672.615235l4.736328.789062 3.552735 3.25586a1.0001 1.0001 0 0 0 .960937.220703l4.638672-1.38086 4.638672 1.38086a1.0001 1.0001 0 0 0 .960937-.220703l3.552735-3.25586 4.736328-.789062a1.0001 1.0001 0 0 0 .763672-.615235l1.77539-4.4375 3.945313-2.763672a1.0001 1.0001 0 0 0 .425781-.878906l-.296875-4.835937 2.367188-4.140625a1.0001 1.0001 0 0 0 0-.992188l-2.367188-4.140625.296875-4.835937a1.0001 1.0001 0 0 0 -.425781-.878906l-3.945313-2.763672-1.77539-4.4375004a1.0001 1.0001 0 0 0 -.763672-.6152344l-4.736328-.7890624-3.552735-3.2558594a1.0001 1.0001 0 0 0 -.960937-.2207032l-4.638672 1.3808594-4.638672-1.3808594a1.0001 1.0001 0 0 0 -.296875-.0429687zm.269531 2.1210937 4.38086 1.3046876a1.0001 1.0001 0 0 0 .570312 0l4.38086-1.3046876 3.353515 3.0742188a1.0001 1.0001 0 0 0 .511719.2480469l4.472656.7460937 1.677735 4.1914064a1.0001 1.0001 0 0 0 .355468.447265l3.730469 2.613282-.279297 4.574218a1.0001 1.0001 0 0 0 .128907.556641l2.230468 3.904297-2.230468 3.904297a1.0001 1.0001 0 0 0 -.128907.556641l.279297 4.574218-3.730469 2.613282a1.0001 1.0001 0 0 0 -.355468.447265l-1.677735 4.191406-4.472656.746094a1.0001 1.0001 0 0 0 -.511719.248047l-3.353515 3.074219-4.38086-1.304688a1.0001 1.0001 0 0 0 -.570312 0l-4.38086 1.304688-3.353515-3.074219a1.0001 1.0001 0 0 0 -.511719-.248047l-4.472656-.746094-1.677735-4.191406a1.0001 1.0001 0 0 0 -.3554684-.447265l-3.7304687-2.613282.2792969-4.574218a1.0001 1.0001 0 0 0 -.1289063-.556641l-2.2304687-3.904297 2.2304687-3.904297a1.0001 1.0001 0 0 0 .1289063-.556641l-.2792969-4.574218 3.7304687-2.613282a1.0001 1.0001 0 0 0 .3554684-.447265l1.677735-4.1914064 4.472656-.7460937a1.0001 1.0001 0 0 0 .511719-.2480469zm13.72461 9.8144528-10.960938 17.009766-7.328125-6.611328-1.339843 1.484375 9.074218 8.189453 12.236328-18.990234z"/></svg>

<svg xmlns="http://www.w3.org/2000/svg" viewBox="0 0 50 50" width="50" height="50" fill="#666"><path style="line-height:normal;text-indent:0;text-align:start;text-decoration-line:none;text-decoration-style:solid;text-decoration-color:#000;text-transform:none;block-progression:tb;isolation:auto;mix-blend-mode:normal" d="M 20.064453 2.5234375 A 1.0001 1.0001 0 0 0 19.400391 2.7871094 L 15.847656 6.0429688 L 11.111328 6.8320312 A 1.0001 1.0001 0 0 0 10.347656 7.4472656 L 8.5722656 11.884766 L 4.6269531 14.648438 A 1.0001 1.0001 0 0 0 4.2011719 15.527344 L 4.4980469 20.363281 L 2.1308594 24.503906 A 1.0001 1.0001 0 0 0 2.1308594 25.496094 L 4.4980469 29.636719 L 4.2011719 34.472656 A 1.0001 1.0001 0 0 0 4.6269531 35.351562 L 8.5722656 38.115234 L 10.347656 42.552734 A 1.0001 1.0001 0 0 0 11.111328 43.167969 L 15.847656 43.957031 L 19.400391 47.212891 A 1.0001 1.0001 0 0 0 20.361328 47.433594 L 25 46.052734 L 29.638672 47.433594 A 1.0001 1.0001 0 0 0 30.599609 47.212891 L 34.152344 43.957031 L 38.888672 43.167969 A 1.0001 1.0001 0 0 0 39.652344 42.552734 L 41.427734 38.115234 L 45.373047 35.351562 A 1.0001 1.0001 0 0 0 45.798828 34.472656 L 45.501953 29.636719 L 47.869141 25.496094 A 1.0001 1.0001 0 0 0 47.869141 24.503906 L 45.501953 20.363281 L 45.798828 15.527344 A 1.0001 1.0001 0 0 0 45.373047 14.648438 L 41.427734 11.884766 L 39.652344 7.4472656 A 1.0001 1.0001 0 0 0 38.888672 6.8320312 L 34.152344 6.0429688 L 30.599609 2.7871094 A 1.0001 1.0001 0 0 0 29.638672 2.5664062 L 25 3.9472656 L 20.361328 2.5664062 A 1.0001 1.0001 0 0 0 20.064453 2.5234375 z M 20.333984 4.6445312 L 24.714844 5.9492188 A 1.0001 1.0001 0 0 0 25.285156 5.9492188 L 29.666016 4.6445312 L 33.019531 7.71875 A 1.0001 1.0001 0 0 0 33.53125 7.9667969 L 38.003906 8.7128906 L 39.681641 12.904297 A 1.0001 1.0001 0 0 0 40.037109 13.351562 L 43.767578 15.964844 L 43.488281 20.539062 A 1.0001 1.0001 0 0 0 43.617188 21.095703 L 45.847656 25 L 43.617188 28.904297 A 1.0001 1.0001 0 0 0 43.488281 29.460938 L 43.767578 34.035156 L 40.037109 36.648438 A 1.0001 1.0001 0 0 0 39.681641 37.095703 L 38.003906 41.287109 L 33.53125 42.033203 A 1.0001 1.0001 0 0 0 33.019531 42.28125 L 29.666016 45.355469 L 25.285156 44.050781 A 1.0001 1.0001 0 0 0 24.714844 44.050781 L 20.333984 45.355469 L 16.980469 42.28125 A 1.0001 1.0001 0 0 0 16.46875 42.033203 L 11.996094 41.287109 L 10.318359 37.095703 A 1.0001 1.0001 0 0 0 9.9628906 36.648438 L 6.2324219 34.035156 L 6.5117188 29.460938 A 1.0001 1.0001 0 0 0 6.3828125 28.904297 L 4.1523438 25 L 6.3828125 21.095703 A 1.0001 1.0001 0 0 0 6.5117188 20.539062 L 6.2324219 15.964844 L 9.9628906 13.351562 A 1.0001 1.0001 0 0 0 10.318359 12.904297 L 11.996094 8.7128906 L 16.46875 7.9667969 A 1.0001 1.0001 0 0 0 16.980469 7.71875 L 20.333984 4.6445312 z M 34.058594 14.458984 L 23.097656 31.46875 L 15.769531 24.857422 L 14.429688 26.341797 L 23.503906 34.53125 L 35.740234 15.541016 L 34.058594 14.458984 z"/></svg>
